svg/magnify_scan.svg

<svg xmlns="http://www.w3.org/2000/svg" viewBox="0 0 24 24"><path d="M17 22v-2h3v-3h2v3.5c0 .39-.16.74-.46 1.04s-.65.46-1.04.46zM7 22H3.5c-.39 0-.74-.16-1.04-.46S2 20.89 2 20.5V17h2v3h3zM17 2h3.5c.39 0 .74.16 1.04.46s.46.65.46 1.04V7h-2V4h-3zM7 2v2H4v3H2V3.5c0-.39.16-.74.46-1.04S3.11 2 3.5 2zm3.5 4C13 6 15 8 15 10.5c0 .88-.25 1.7-.69 2.4l3.26 3.26-1.41 1.41-3.26-3.26c-.7.44-1.52.69-2.4.69C8 15 6 13 6 10.5S8 6 10.5 6m0 2a2.5 2.5 0 0 0 0 5 2.5 2.5 0 0 0 0-5"/></svg>

<?xml version="1.0" encoding="UTF-8"?><!DOCTYPE svg PUBLIC "-//W3C//DTD SVG 1.1//EN" "http://www.w3.org/Graphics/SVG/1.1/DTD/svg11.dtd"><svg xmlns="http://www.w3.org/2000/svg" xmlns:xlink="http://www.w3.org/1999/xlink" version="1.1" id="mdi-magnify-scan" width="24" height="24" viewBox="0 0 24 24"><path d="M17 22V20H20V17H22V20.5C22 20.89 21.84 21.24 21.54 21.54C21.24 21.84 20.89 22 20.5 22H17M7 22H3.5C3.11 22 2.76 21.84 2.46 21.54C2.16 21.24 2 20.89 2 20.5V17H4V20H7V22M17 2H20.5C20.89 2 21.24 2.16 21.54 2.46C21.84 2.76 22 3.11 22 3.5V7H20V4H17V2M7 2V4H4V7H2V3.5C2 3.11 2.16 2.76 2.46 2.46C2.76 2.16 3.11 2 3.5 2H7M10.5 6C13 6 15 8 15 10.5C15 11.38 14.75 12.2 14.31 12.9L17.57 16.16L16.16 17.57L12.9 14.31C12.2 14.75 11.38 15 10.5 15C8 15 6 13 6 10.5C6 8 8 6 10.5 6M10.5 8C9.12 8 8 9.12 8 10.5C8 11.88 9.12 13 10.5 13C11.88 13 13 11.88 13 10.5C13 9.12 11.88 8 10.5 8Z" /></svg>
